X: 7
T: Hunting song (c)
N: Derived from ojibwa07.krn
C: Chippewa Songs ~ 1910
O: Red Wing, Minnesota, U.S.A
N: Chippewa Music by Frances Densmore, 1910
Z: transcribed to **kern format by Paul von Hippel and Daniel T. Shanahan
L: 1/8
M: 2/4
Q: 1/4=108
K: G clef=bass
%%linebreak <none>
D D [I:setbarnb 1]| 
B,2B,3/ B,/ | 
A,4 | 
A,2A,2 | 
[M:3/4]G,4G,3/ E,/ | 
[M:4/4]D,4E,3G, | 
G,2A, G,E,2F, E, | 
[M:2/4]D, D,D,2 | 
[M:3/4]D,6 | 
D,2D,2 |]  



